app/dist/common/images/luxfer-plc.svg

<svg height="18" viewBox="0 0 18 18" width="18" xmlns="http://www.w3.org/2000/svg"><path d="m0 0h18v18h-18z" fill="#f0f3fa"/><path d="m6.5 4-2.5 3h1.5v2h1l-2.5 3h1.5v2h2v-2h3v2h2v-2h1.5l-2.5-3h1v-2h1.5l-2.5-3-2.5 3zm2.5 3h1.5v2h1l-2.5 3-2.5-3h1v-2z" fill="#0e3267"/></svg>

<!-- by TradingView --><svg width="18" height="18" viewBox="0 0 18 18" xmlns="http://www.w3.org/2000/svg"><path fill="#F0F3FA" d="M0 0h18v18H0z"/><path d="M6.5 4 4 7h1.5v2h1L4 12h1.5v2h2v-2h3v2h2v-2H14l-2.5-3h1V7H14l-2.5-3L9 7 6.5 4ZM9 7h1.5v2h1L9 12 6.5 9h1V7H9Z" fill="#0E3267"/></svg>
